svgs/thin/door-closed.svg

<svg xmlns="http://www.w3.org/2000/svg" viewBox="0 0 576 512"><!-- Font Awesome Pro 6.0.0-alpha2 by @fontawesome - https://fontawesome.com License - https://fontawesome.com/license (Commercial License) --><path d="M568 496H480V56C480 25.125 454.875 0 424 0H152C121.125 0 96 25.125 96 56V496H8C3.594 496 0 499.594 0 504S3.594 512 8 512H568C572.406 512 576 508.406 576 504S572.406 496 568 496ZM464 496H112V56C112 33.938 129.938 16 152 16H424C446.062 16 464 33.938 464 56V496ZM384 216C361.938 216 344 233.938 344 256S361.938 296 384 296S424 278.062 424 256S406.062 216 384 216ZM384 280C370.781 280 360 269.219 360 256S370.781 232 384 232S408 242.781 408 256S397.219 280 384 280Z"/></svg>

<svg xmlns="http://www.w3.org/2000/svg" viewBox="0 0 576 512"><!--! Font Awesome Pro 6.3.0 by @fontawesome - https://fontawesome.com License - https://fontawesome.com/license (Commercial License) Copyright 2023 Fonticons, Inc. --><path d="M568 496H480V56C480 25.12 454.9 0 424 0h-272C121.1 0 96 25.12 96 56V496H8C3.594 496 0 499.6 0 504S3.594 512 8 512h560c4.406 0 8-3.594 8-8S572.4 496 568 496zM464 496h-352V56c0-22.06 17.94-40 40-40h272c22.06 0 40 17.94 40 40V496zM384 216c-22.06 0-40 17.94-40 40S361.9 296 384 296S424 278.1 424 256S406.1 216 384 216zM384 280c-13.22 0-24-10.78-24-24S370.8 232 384 232S408 242.8 408 256S397.2 280 384 280z"/></svg>
